X:1
T:Under the Blood (Lanning)
T:Under the Blood (Lanning)
T:M. McCumber
T:S. A. Lanning, 1894
T:Public Domain Courtesy of the Cyber Hymnal™
C:M. McCumber
Z:Public Domain
Z:Courtesy of the Cyber Hymnal™
%%score ( 1 2 ) ( 3 4 )
L:1/8
Q:1/4=96
M:6/8
K:Eb
V:1 treble 
V:2 treble 
V:3 bass 
V:4 bass 
V:1
 [EG]2 [EG] (GF)[EG] | (Bc)[DB] [EG]2 E | [EG]3 [DF]E[DF] | ([EG]3 [DF]3) | %4
w: 1.~He who will * wear|gar- * ments white Must|pass un- der the|blood; *|
w: 2.~He who will * a-|tone- * ment plead Must|pass un- der the|blood; *|
w: 4.~He who will * from|sin * be free Must|pass un- der the|blood; *|
w: 4.~He who seeks * a|con- * science clear Must|pass un- der the|blood; *|
w: 5.~He who would * be|sa- * tis- fied Must|pass un- der the|blood; *|
 [EG]2 [EG] ([EG][EF])[EG] | ([DB][Dc])[DB] [EG]2 E | [EG]3 [DF]E[B,F] | [B,E]3- [B,E]2 || %8
w: He who reigns * where|there’s * no night, Has|passed un- der the|blood. *|
w: He who follows * where|Jesus * will lead, Must|pass un- der the|blood. *|
w: He who will * his|Sav- * ior see Must|pass un- der the|blood. *|
w: He who finds * a|Sav- * ior dear Must|pass un- der the|blood. *|
w: He who would * be|glo- * ri- fied Must|pass un- der the|blood. *|
"^Refrain" [GB] | [Ge]3 [Ad][Ac][AB] | [Gc]2 [GB] [GB]<[EG]E | [EG]3 [DF][CE][DF] | ([EG]3 [DF]3) | %13
w: |||||
w: |||||
w: Oh,|pass un- der the|blood, my bro- ther, Oh,|pass un- der the|blood; *|
w: |||||
w: |||||
 [Ge]2 [Ge] [Ac]2 [GB] | [Ac]2 [GB] [GB]2 E | [EG]3 [DF]E[B,F] | [B,E]6 |] %17
w: ||||
w: ||||
w: He who dwells where|Je- sus is, Has|passed un- der the|blood.|
w: ||||
w: ||||
V:2
 x3 E2 x | D2 x2 E x | x4 E x | x6 | x6 | x5 E | x4 E x | x5 || x | x6 | x5 E | x6 | x6 | x6 | %14
 x5 E | x4 E x | x6 |] %17
V:3
 [E,B,]2 [E,B,] [E,B,]2 [E,B,] | [B,,B,]2 [B,,B,] [E,B,]2 [E,G,] | [B,,B,]3 [B,,A,][B,,G,][B,,B,] | %3
 [B,,B,]6 | [E,B,]2 [E,B,] ([E,B,][E,B,])[E,B,] | ([B,,B,][B,,B,])[B,,B,] [E,B,]2 [E,G,] | %6
 [B,,B,]3 [B,,A,][B,,G,][B,,A,] | [E,G,]3- [E,G,]2 || [E,B,] | [E,B,]3 [F,B,][F,C][B,,D] | %10
 [E,E]2 [E,E] [E,E]<[E,B,][G,B,] | B,3 [B,,B,][B,,B,][B,,B,] | [B,,B,]6 | %13
 [E,B,]2 [E,B,] [E,E]2 [E,E] | [E,E]2 [E,E] [E,E]2 [G,B,] | B,3 [B,,A,][B,,G,][B,,A,] | [E,G,]6 |] %17
V:4
 x6 | x6 | x6 | x6 | x6 | x6 | x6 | x5 || x | x6 | x6 | B,3 x3 | x6 | x6 | x6 | B,3 x3 | x6 |] %17

